X:074
T: Kitten (The)
N: O'Farrell's Pocket Companion v.1 (Sky ed. p.49)
N: "Scotch"
M: 9/8
L: 1/8
R: slip jig
Q: 320
K: G
D|: G2B GEE GEE|G>AG/F/ GEE F2D|G2B GEE GEE|FGA ABG FED :|
P:2
G2c BGd BGd|G2c BGd cBA|G2c BGd BGd|ecA ABG FED :|
P:3
B/c/BA GEE GEE|B/c/BA GEE FED|B/c/BA GEE GEE|FGA ABG FED :|
P:4
G2G dBG BdB|G2G dBG ecA|GBd g>ag/f/ gdB|ecA ABG FED :|
P:5
BGE cGE dGE|cGE BGE AGE|BGE cGE dGE|d2B ABG FED :|
